build/img/partners/asna.svg

<?xml version="1.0" encoding="UTF-8"?>
<svg width="164px" height="42px" viewBox="0 0 164 42" version="1.1" xmlns="http://www.w3.org/2000/svg" xmlns:xlink="http://www.w3.org/1999/xlink">
    <!-- Generator: Sketch 49.3 (51167) - http://www.bohemiancoding.com/sketch -->
    <title>logo copy 4</title>
    <desc>Created with Sketch.</desc>
    <defs>
        <path d="M36.340625,25.1509434 C32.578125,21.9811321 27.740625,20 22.365625,20 C10.540625,20 1,29.3773585 1,41 C1,52.6226415 10.540625,62 22.365625,62 C27.740625,62 32.578125,60.0188679 36.340625,56.8490566 L36.340625,61.0754717 L44,61.0754717 L44,20.7924528 L36.340625,20.7924528 L36.340625,25.1509434 Z M22.5,55 C15.0882353,55 9,48.9117647 9,41.5 C9,34.0882353 15.0882353,28 22.5,28 C29.9117647,28 36,34.0882353 36,41.5 C36,49.0441176 29.9117647,55 22.5,55 Z M68.2,54.4716981 C72.3333333,54.4716981 76.0666667,52.6226415 78.4666667,49.7169811 L83,55.9245283 C79.2666667,59.754717 73.9333333,62 68.2,62 C56.4666667,62 47,52.6226415 47,41 C47,29.3773585 56.4666667,20 68.2,20 C73.9333333,20 79.1333333,22.3773585 83,26.0754717 L78.4666667,32.2830189 C76.0666667,29.3773585 72.3333333,27.5283019 68.2,27.5283019 C60.6,27.5283019 54.6,33.6037736 54.6,41 C54.6,48.5283019 60.7333333,54.4716981 68.2,54.4716981 Z M157.340625,20.7924528 L157.340625,25.1509434 C153.578125,21.9811321 148.740625,20 143.365625,20 C131.540625,20 122,29.3773585 122,41 C122,52.6226415 131.540625,62 143.365625,62 C148.740625,62 153.578125,60.0188679 157.340625,56.8490566 L157.340625,61.0754717 L165,61.0754717 L165,20.7924528 L157.340625,20.7924528 Z M143.5,55 C136.088235,55 130,48.9117647 130,41.5 C130,34.0882353 136.088235,28 143.5,28 C150.911765,28 157,34.0882353 157,41.5 C157,49.0441176 150.911765,55 143.5,55 Z M111.368201,37.2622951 L111.368201,21 L119,21 L119,61 L111.368201,61 L111.368201,44.7377049 L94.6317992,44.7377049 L94.6317992,61 L87,61 L87,21 L94.6317992,21 L94.6317992,37.2622951 L111.368201,37.2622951 Z" id="path-1"></path>
    </defs>
    <g id="Symbols" stroke="none" stroke-width="1" fill="none" fill-rule="evenodd">
        <g id="UI-KIT/Branding/Logotype" transform="translate(-1.000000, -20.000000)">
            <g id="logotype">
                <mask id="mask-2" fill="white">
                    <use xlink:href="#path-1"></use>
                </mask>
                <use id="logo-copy-4" fill="#212121" fill-rule="nonzero" xlink:href="#path-1"></use>
            </g>
        </g>
    </g>
</svg>

<svg width="164" height="42" xmlns="http://www.w3.org/2000/svg" xmlns:xlink="http://www.w3.org/1999/xlink"><defs><path d="M36.34 25.15C32.579 21.982 27.74 20 22.367 20 10.54 20 1 29.377 1 41s9.54 21 21.366 21c5.375 0 10.212-1.981 13.975-5.15v4.225H44V20.792h-7.66v4.359zM22.5 55C15.088 55 9 48.912 9 41.5S15.088 28 22.5 28 36 34.088 36 41.5C36 49.044 29.912 55 22.5 55zm45.7-.528c4.133 0 7.867-1.85 10.267-4.755L83 55.925C79.267 59.755 73.933 62 68.2 62 56.467 62 47 52.623 47 41s9.467-21 21.2-21c5.733 0 10.933 2.377 14.8 6.075l-4.533 6.208c-2.4-2.906-6.134-4.755-10.267-4.755-7.6 0-13.6 6.076-13.6 13.472 0 7.528 6.133 13.472 13.6 13.472zm89.14-33.68v4.359c-3.762-3.17-8.6-5.151-13.974-5.151C131.54 20 122 29.377 122 41s9.54 21 21.366 21c5.375 0 10.212-1.981 13.975-5.15v4.225H165V20.792h-7.66zM143.5 55c-7.412 0-13.5-6.088-13.5-13.5S136.088 28 143.5 28 157 34.088 157 41.5c0 7.544-6.088 13.5-13.5 13.5zm-32.132-17.738V21H119v40h-7.632V44.738H94.632V61H87V21h7.632v16.262h16.736z" id="path-1"/></defs><g id="Symbols" stroke="none" stroke-width="1" fill="none" fill-rule="evenodd"><g id="UI-KIT/Branding/Logotype" transform="translate(-1 -20)"><g id="logotype"><mask id="mask-2" fill="#fff"><use xlink:href="#path-1"/></mask><use id="logo-copy-4" fill="#212121" fill-rule="nonzero" xlink:href="#path-1"/></g></g></g></svg>
